X: 3088
T: The REEL OF CLUNY
C: Joseph Lowe
Q:"Reel."
R: Reel.
%R:reel
B: James Kerr "Merry Melodies" v.3 p.11 #88
Z: 2016 John Chambers <jc:trillian.mit.edu>
M: C
L: 1/8
K: A
uE |\
A2(c/B/A) aAcA | aAce fBBc |\
A2(c/B/A) aAcA | dfec A/A/A A ::\
g |\
aece dfec |
aece fBBg |\
[1 aece dfec | dBec A/A/A A :|\
[2 afge fdec | dfec A/A/A A |]

%%sep 1 1 500
%%sep 1 1 500

